!!!OTL: Untreue (3-23), S. 78
!!!id: P0995
**kern
*clefG2
*k[b-]
*F:
{8f
8f
8f
=1
2cc
4dd
=2
4.cc
8b-
4cc
=3
4a
4f}
=4
{4f
=5
4f
4f
4cc
=6
4.b-
8a
4g}
=7
{4f
4g
4a
=8
4g
4c}
4r
=9
{4c
4d
4e
=10
2g
4cc
=11
4b-
4g
4a
=12
4f}
8r
==
*-
!!!minrhy: 8
!!!meters: 3/4 ]  ZZ[4
!!!cut: Untreue (3-23), S. 78
!!!reg: Lothringen
!!!trd: PINCK, Louis: Verklingende Weisen, Bd3, Metz 1933
!!!rhy1: XXX  X__X_  X_.XX_  X_X_
!!!rhy2: X_  X_X_X_  X_.XX_
!!!key: P0995  08  F 3/4 ]  ZZ[4
!!!mod: HEPTATONIK IONISCH]  AMBITUS[9
!!!kad: 12-51
!!!akz: 553_14_12_-5241_
!!!fot: 'a__b__c__d__
!!!for: 'a__b__c__d__
!!!fok: '^__^a_^d_^a_
!! PHRAS[GEMISCHTTAKTIG]
!!!fkt: Untreue, Mord, Standesunterschied
!! LOTH VKL
!! PR[17] 2K[0] 2G[13] 3K[4] 3G[4] 4A[4] 4Ü[0] 5A[0] 6K[0] 6G[0]
!! 7K[0] 7G[0] 8A[0] MEHR[0] SI[26] ABS[23] SR[13] SP[13]
!! ST[8] 2k[13] 2g[39] 3k[0] 3g[4] 4d[0] 4ü[0] 5d[0] 6k[0] 6g[0]
!! 7k[0] 7g[0] 8d[0] mehr[0] si[57] dm[-31] sr[52] sp[4]
!! 1F[17] 2F[75] 3F[8] 4F[0] LF[0] 2P[0] 3P[0] 4P[0] TRI[0] DF[3] AB[24]
!! TF[0] U3K[0] U3[0] U4[0] U4Ü[0] U5[0] U6K[0] U6[0] U7K[8] U7[0]
!! N1[25] N2K[0] N2[17] N3K[17] N3[0] N4[13] N4Ü[0] N5[21] N6K[0] N6[0]
!!!n7k: 0] N7[0] O1[0] O2K[0] O2[0] O3K[0] O3[0] HÖ[0
